32x32/apps/applications-education-science.svg

<?xml version="1.0" encoding="UTF-8" standalone="no"?>
<svg
   xmlns:dc="http://purl.org/dc/elements/1.1/"
   xmlns:cc="http://creativecommons.org/ns#"
   xmlns:rdf="http://www.w3.org/1999/02/22-rdf-syntax-ns#"
   xmlns:svg="http://www.w3.org/2000/svg"
   xmlns="http://www.w3.org/2000/svg"
   xmlns:xlink="http://www.w3.org/1999/xlink"
   xmlns:sodipodi="http://sodipodi.sourceforge.net/DTD/sodipodi-0.dtd"
   xmlns:inkscape="http://www.inkscape.org/namespaces/inkscape"
   height="64"
   viewBox="0 0 64 64"
   width="64"
   version="1.1"
   id="svg23"
   sodipodi:docname="applications-education-science.svg"
   inkscape:version="1.0.1 (3bc2e813f5, 2020-09-07, custom)">
  <metadata
     id="metadata29">
    <rdf:RDF>
      <cc:Work
         rdf:about="">
        <dc:format>image/svg+xml</dc:format>
        <dc:type
           rdf:resource="http://purl.org/dc/dcmitype/StillImage" />
        <dc:title></dc:title>
      </cc:Work>
    </rdf:RDF>
  </metadata>
  <defs
     id="defs27">
    <filter
       color-interpolation-filters="sRGB"
       height="1.048"
       width="1.048"
       y="-.024"
       x="-.024"
       id="filter2761">
      <feGaussianBlur
         id="feGaussianBlur4"
         stdDeviation="0.14552168" />
    </filter>
    <linearGradient
       gradientUnits="userSpaceOnUse"
       gradientTransform="matrix(3.7796,0,0,3.7796,93.808377,0.53085)"
       y2="1.1269"
       y1="15.576"
       x2="15.673"
       x1="1.3315"
       id="linearGradient1024">
      <stop
         id="stop7-7"
         offset="0"
         stop-color="#a53cff" />
      <stop
         id="stop9-5"
         offset="1"
         stop-color="#b496ff" />
    </linearGradient>
    <linearGradient
       gradientUnits="userSpaceOnUse"
       gradientTransform="matrix(1.2346,0,0,1.2346,2.3832028,3.6047)"
       y2="4"
       y1="44"
       x2="0"
       id="linearGradient890">
      <stop
         id="stop4-3"
         offset="0"
         stop-color="#FFB900" />
      <stop
         id="stop6"
         offset="1"
         stop-color="#ff0" />
    </linearGradient>
    <filter
       color-interpolation-filters="sRGB"
       height="1.048"
       width="1.048"
       y="-.024"
       x="-.024"
       id="filter2761-67">
      <feGaussianBlur
         id="feGaussianBlur9"
         stdDeviation="0.14552168" />
    </filter>
    <linearGradient
       gradientUnits="userSpaceOnUse"
       gradientTransform="matrix(3.7796,0,0,3.7796,66.443573,0.53068)"
       y2="1.1082"
       y1="15.601"
       x2="15.644"
       x1="1.4377"
       id="linearGradient4673">
      <stop
         id="stop12-5"
         offset="0"
         stop-color="#dc2828" />
      <stop
         id="stop14-6"
         offset="1"
         stop-color="#fa4141" />
    </linearGradient>
    <linearGradient
       gradientUnits="userSpaceOnUse"
       y2="9.67"
       y1="54.592"
       x2="34.134"
       x1="34.134"
       id="linearGradient915">
      <stop
         id="stop17"
         offset="0"
         stop-color="#ffb900" />
      <stop
         id="stop19"
         offset="1"
         stop-color="#ff0" />
    </linearGradient>
    <filter
       inkscape:collect="always"
       style="color-interpolation-filters:sRGB"
       id="filter1057"
       x="-0.027000001"
       width="1.054"
       y="-0.027000001"
       height="1.054">
      <feGaussianBlur
         inkscape:collect="always"
         stdDeviation="0.61875"
         id="feGaussianBlur1059" />
    </filter>
    <linearGradient
       inkscape:collect="always"
       xlink:href="#linearGradient1051"
       id="linearGradient1053"
       x1="-127"
       y1="60"
       x2="-72"
       y2="5"
       gradientUnits="userSpaceOnUse"
       gradientTransform="translate(131.5,-0.50999746)" />
    <linearGradient
       inkscape:collect="always"
       id="linearGradient1051">
      <stop
         style="stop-color:#a53cff;stop-opacity:1"
         offset="0"
         id="stop1047" />
      <stop
         style="stop-color:#b496ff;stop-opacity:1"
         offset="1"
         id="stop1049" />
    </linearGradient>
    <linearGradient
       id="linearGradient890-3"
       x2="0"
       y1="44"
       y2="4"
       gradientTransform="matrix(1.2346,0,0,1.2346,3.1419,3.6047)"
       gradientUnits="userSpaceOnUse">
      <stop
         stop-color="#FFB900"
         offset="0"
         id="stop861" />
      <stop
         stop-color="#ff0"
         offset="1"
         id="stop863" />
    </linearGradient>
    <filter
       id="filter2761-6"
       x="-.024"
       y="-.024"
       width="1.048"
       height="1.048"
       color-interpolation-filters="sRGB">
      <feGaussianBlur
         stdDeviation="0.14552168"
         id="feGaussianBlur866" />
    </filter>
  </defs>
  <sodipodi:namedview
     pagecolor="#ffffff"
     bordercolor="#666666"
     borderopacity="1"
     objecttolerance="10"
     gridtolerance="10"
     guidetolerance="10"
     inkscape:pageopacity="0"
     inkscape:pageshadow="2"
     inkscape:window-width="1920"
     inkscape:window-height="942"
     id="namedview25"
     showgrid="false"
     inkscape:zoom="6.0546875"
     inkscape:cx="3.2520792"
     inkscape:cy="15.944504"
     inkscape:window-x="0"
     inkscape:window-y="38"
     inkscape:window-maximized="1"
     inkscape:current-layer="svg23" />
  <linearGradient
     id="a"
     gradientUnits="userSpaceOnUse"
     x1="396.66663"
     x2="396.66663"
     y1="518.07947"
     y2="545.1543"
     gradientTransform="matrix(2.0016201,0,0,2.0016201,-852.84554,-1032.3463)">
    <stop
       offset="0"
       stop-color="#db50c8"
       id="stop2" />
    <stop
       offset="1"
       stop-color="#981fe7"
       id="stop4" />
  </linearGradient>
  <linearGradient
     id="b"
     gradientUnits="userSpaceOnUse"
     x1="403.43533"
     x2="402.46838"
     y1="545.1543"
     y2="518.07947"
     gradientTransform="matrix(2.0016201,0,0,2.0016201,-852.84554,-1032.3463)">
    <stop
       offset="0"
       stop-color="#981fe7"
       id="stop7" />
    <stop
       offset="1"
       stop-color="#db50c8"
       id="stop9" />
  </linearGradient>
  <linearGradient
     id="c"
     gradientUnits="userSpaceOnUse"
     x1="18.245573"
     x2="16.811239"
     y1="29.791063"
     y2="1.104376"
     gradientTransform="matrix(1.1944399,0,0,1.1944399,-70.922936,14.111417)">
    <stop
       offset="0"
       stop-color="#d3d3d3"
       id="stop12" />
    <stop
       offset="1"
       stop-color="#fcf9f9"
       id="stop14" />
  </linearGradient>
  <g
     fill="#5e4aa6"
     id="g30">
    <circle
       cx="-1248.7"
       cy="-1241.6"
       r="0"
       id="circle24" />
    <circle
       cx="-1140.3"
       cy="-1301.8"
       r="0"
       id="circle26" />
    <circle
       cx="-1158.1"
       cy="-1246"
       r="0"
       id="circle28" />
  </g>
  <circle
     cx="-1157.3"
     cy="-1267.7"
     r="0"
     fill="#5e4aa6"
     id="circle36" />
  <circle
     cx="-57.756001"
     cy="-2.1829"
     r="0"
     fill="#5e4aa6"
     fill-rule="evenodd"
     id="circle38" />
  <rect
     ry="15"
     y="4.5"
     x="4.5"
     height="55"
     width="55"
     id="rect1055"
     style="opacity:0.3;fill:#141414;fill-opacity:1;stroke-width:2.74436;stroke-linecap:round;filter:url(#filter1057)" />
  <rect
     style="fill:url(#linearGradient1053);fill-opacity:1;stroke-width:2.74436;stroke-linecap:round"
     id="rect1045"
     width="54.999996"
     height="54.999996"
     x="4.5000019"
     y="4.5000019"
     ry="14.999999" />
  <path
     id="rect996"
     style="opacity:1;fill:#ffffff;fill-opacity:1;stroke-width:2;stroke-linecap:round;stroke-linejoin:round;paint-order:stroke fill markers"
     d="M 39.59375 13.169922 C 39.419646 13.179461 39.243494 13.205967 39.068359 13.251953 C 38.016058 13.529063 37.281682 14.406278 37.134766 15.417969 C 35.156773 16.25766 28.405196 19.994836 29.412109 31.640625 C 22.017332 31.855624 18.128341 33.813746 16.359375 35.091797 C 15.904293 34.948464 15.405849 34.926443 14.910156 35.056641 C 13.507884 35.429307 12.671175 36.860963 13.039062 38.265625 C 13.409339 39.669092 14.845774 40.509384 16.248047 40.136719 C 17.404265 39.833332 18.175653 38.80117 18.203125 37.664062 L 25.933594 45.779297 C 25.752039 45.891574 25.573584 45.99516 25.400391 46.085938 C 24.78406 45.636828 23.979091 45.458619 23.183594 45.664062 C 21.781322 46.034338 20.943418 47.471533 21.3125 48.875 C 21.682776 50.278467 23.118017 51.117565 24.521484 50.746094 C 25.615591 50.459428 26.362122 49.520519 26.464844 48.455078 C 30.081608 46.658641 33.076085 42.246161 32.294922 34.199219 C 34.615718 34.188469 36.753927 33.927123 38.675781 33.421875 C 41.549604 32.665794 43.93847 31.371641 45.748047 29.564453 C 48.030621 27.281878 49.334475 24.291872 49.556641 20.855469 C 50.669859 20.32036 51.288215 19.056993 50.960938 17.818359 C 50.590662 16.416087 49.156178 15.580137 47.753906 15.949219 C 46.349245 16.318301 45.511777 17.752783 45.880859 19.15625 C 46.055247 19.814386 46.462615 20.345454 46.994141 20.689453 C 46.866336 22.617279 46.293002 24.966289 44.595703 27.019531 C 39.811971 21.562135 37.790715 19.335396 36.855469 18.433594 C 37.354745 18.117068 37.776384 17.919677 38.054688 17.808594 C 38.686546 18.334148 39.552984 18.559733 40.408203 18.333984 C 41.809281 17.964902 42.647621 16.528031 42.277344 15.126953 C 41.952307 13.89892 40.812475 13.103148 39.59375 13.169922 z M 35.826172 19.189453 C 36.837863 20.189199 40.763061 24.608904 43.710938 27.962891 C 43.071913 28.5625 42.339127 29.09331 41.529297 29.550781 C 37.329646 24.759882 35.188001 22.370109 34.044922 21.181641 C 34.617059 20.34195 35.236119 19.687535 35.826172 19.189453 z M 33.367188 22.330078 C 34.978487 24.070377 37.97127 27.447921 40.339844 30.142578 C 39.398625 30.553465 38.370918 30.880575 37.263672 31.123047 L 32.302734 25.304688 C 32.5679 24.158b9cbe3 32.935994 23.170963 33.367188 22.330078 z M 32.017578 26.951172 L 35.798828 31.384766 C 34.609166 31.556765 33.336692 31.639979 31.994141 31.632812 C 31.825725 29.865042 31.85275 28.311639 32.017578 26.951172 z M 29.714844 34.205078 C 29.802034 35.000575 29.84743 35.743095 29.859375 36.439453 L 27.623047 34.306641 C 28.282378 34.255281 28.979069 34.2218 29.714844 34.205078 z M 25.939453 34.482422 L 29.8125 38.177734 C 29.699028 39.683923 29.403834 40.930571 28.994141 41.958984 L 22.224609 35.212891 C 23.264967 34.921448 24.49657 34.662783 25.939453 34.482422 z M 20.845703 35.654297 L 28.402344 43.183594 C 27.969957 43.92773 27.474111 44.518431 26.962891 44.990234 L 18.896484 36.525391 C 19.413677 36.244698 20.054984 35.943351 20.845703 35.654297 z " />
</svg>

<svg height="64" width="64" xmlns="http://www.w3.org/2000/svg">
    <filter id="a" color-interpolation-filters="sRGB" height="1.054" width="1.054" x="-.027" y="-.027">
        <feGaussianBlur stdDeviation=".619"/>
    </filter>
    <linearGradient id="b" gradientUnits="userSpaceOnUse" x1="4.5" x2="59.5" y1="59.49" y2="4.49">
        <stop offset="0" stop-color="#a53cff"/>
        <stop offset="1" stop-color="#b496ff"/>
    </linearGradient>
    <g stroke-linecap="round">
        <rect fill="#141414" filter="url(#a)" height="55" opacity=".3" ry="15" width="55" x="4.5" y="4.5"/>
        <rect fill="url(#b)" height="55" ry="15" width="55" x="4.5" y="4.5"/>
        <path d="M39.594 13.17a2.63 2.63 0 0 0-2.459 2.248c-1.978.84-8.73 4.577-7.723 16.223-7.395.215-11.284 2.173-13.053 3.45a2.603 2.603 0 0 0-1.449-.034 2.629 2.629 0 0 0-1.87 3.209 2.624 2.624 0 0 0 5.163-.602l7.73 8.115c-.181.113-.36.216-.533.307a2.635 2.635 0 0 0-2.216-.422 2.63 2.63 0 0 0-1.872 3.211 2.625 2.625 0 0 0 5.153-.42c3.617-1.796 6.611-6.209 5.83-14.256 2.32-.01 4.459-.272 6.38-.777 2.875-.756 5.263-2.05 7.073-3.858 2.283-2.282 3.586-5.272 3.809-8.709a2.625 2.625 0 0 0-1.803-4.906 2.624 2.624 0 0 0-.76 4.74c-.128 1.928-.701 4.277-2.398 6.33-4.784-5.457-6.805-7.684-7.74-8.585.499-.317.92-.514 1.199-.625a2.625 2.625 0 0 0 4.222-2.682 2.633 2.633 0 0 0-2.683-1.957zm-3.768 6.02c1.012 1 4.937 5.419 7.885 8.773-.64.6-1.372 1.13-2.182 1.588-4.2-4.791-6.341-7.18-7.484-8.37a9.876 9.876 0 0 1 1.781-1.992zm-2.459 3.14c1.611 1.74 4.604 5.118 6.973 7.813-.941.41-1.97.738-3.076.98l-4.961-5.818c.265-1.15.633-2.134 1.064-2.975zm-1.35 4.621 3.782 4.434a25.69 25.69 0 0 1-3.805.248c-.168-1.768-.141-3.321.024-4.682zm-2.302 7.254c.087.796.132 1.538.144 2.234l-2.236-2.132c.66-.052 1.356-.085 2.092-.102zm-3.776.277 3.874 3.696c-.114 1.506-.41 2.753-.819 3.781l-6.77-6.746c1.041-.292 2.273-.55 3.715-.73zm-5.093 1.172 7.556 7.53a7.71 7.71 0 0 1-1.44 1.806l-8.066-8.465c.518-.28 1.159-.582 1.95-.87z" fill="#fff"/>
    </g>
</svg>
